X: 22466
T: Lady Anne Montgomery
R: reel
M: 4/4
K: Dmajor
A|:FADA FADA|FAdA BAdA|FADF EDEF|DB,A,B, D2(3DDD|
FADA FADA|FAdA BABc|dBAF EDEF|DB,A,B, D2(3DDD:|
|:f2fe fede|fedB ABde|f2fe fede|fgaf efde|
f2fe fede|fedB ABde|fded BdAd|1 egfe d2(3ddd:|2 egfe d2d||

